images/icons/v2/refresh-24.svg

<svg height="24" viewBox="0 0 24 24" width="24" xmlns="http://www.w3.org/2000/svg"><path d="m12.12 20h.58v1.5h-.58z"/><path d="m21.38 12a9.45 9.45 0 0 1 -9.38 9.5 9.5 9.5 0 1 1 6.84-16.22l1 1-.35-1.3v-2.42h1.51v5.94h-6v-1.5h2.39l1.42.38-1-1a8 8 0 0 0 -13.69 5.62 7.88 7.88 0 1 0 15.76 0z"/></svg>

<svg id="Export" xmlns="http://www.w3.org/2000/svg" width="24" height="24" viewBox="0 0 24 24">
  <rect x="12.12" y="20" width="0.58" height="1.5"/>
  <path d="M21.38,12A9.45,9.45,0,0,1,12,21.5,9.5,9.5,0,1,1,18.84,5.28l1,1-.35-1.3V2.56H21V8.5H15V7h2.39l1.42.38-1-1A8,8,0,0,0,4.12,12a7.88,7.88,0,1,0,15.76,0Z"/>
</svg>
